icons/dart-light.svg

<svg xmlns="http://www.w3.org/2000/svg" width="256" height="256" fill="none" viewBox="0 0 256 256"><rect width="256" height="256" fill="#F4F2ED" rx="60"/><path fill="#00C4B3" d="M87.4494 87.005L75.8113 75.3612L75.8563 159.463L75.9969 163.39C76.0532 165.246 76.4047 167.327 76.9672 169.493L169.147 202.005L192.209 191.796L192.229 191.762L87.4438 87.005H87.4494Z"/><path fill="#22D3C5" d="M76.97 169.493H76.9785C76.97 169.459 76.956 169.42 76.9391 169.38C76.9588 169.423 76.9588 169.465 76.9672 169.493H76.97ZM192.187 191.796L169.124 202.005L76.9588 169.493C78.7166 176.254 82.6175 183.853 86.8081 187.999L116.874 217.916L183.778 218L192.159 191.796H192.187Z"/><path fill="#0075C9" d="M76.1262 75.364L40.2865 129.491C37.3109 132.669 38.7959 139.227 43.5856 144.059L64.2743 164.917L77.2793 169.501C76.7168 167.341 76.3625 165.282 76.309 163.398L76.1684 159.472L76.1262 75.3696V75.364Z"/><path fill="#0075C9" d="M169.906 76.4469C167.741 75.8984 165.665 75.5525 163.795 75.499L159.638 75.3472L75.8112 75.3669L192.226 191.765L202.452 168.702L169.912 76.4525L169.906 76.4469Z"/><path fill="#00A8E1" d="M169.799 76.4271C169.836 76.4412 169.875 76.4496 169.906 76.4553V76.444C169.87 76.4356 169.836 76.4356 169.799 76.4215V76.4271ZM188.404 86.3215C184.171 82.0606 176.676 78.1653 169.906 76.4553L202.447 168.697L192.209 191.759L217.19 183.777L217.246 115.287L188.401 86.3187L188.404 86.3215Z"/><path fill="#00C4B3" d="M165.344 63.5234L144.532 42.8234C139.677 38.0506 133.119 36.56 129.969 39.53L75.845 75.3613L159.672 75.3416L163.828 75.4934C165.699 75.5497 167.777 75.8928 169.94 76.4413L165.35 63.5178L165.344 63.5234Z"/></svg>

<svg xmlns="http://www.w3.org/2000/svg" width="256" height="256" fill="none"><rect width="256" height="256" fill="#F4F2ED" rx="60"/><path fill="#00C4B3" d="M87.45 87.005 75.81 75.361l.045 84.102.14 3.927c.057 1.856.409 3.937.971 6.103l92.18 32.512 23.062-10.209.02-.034L87.444 87.005z"/><path fill="#22D3C5" d="M76.97 169.493h.008a1 1 0 0 0-.039-.113c.02.043.02.085.028.113zm115.217 22.303-23.063 10.209-92.165-32.512c1.758 6.761 5.659 14.36 9.85 18.506l30.065 29.917 66.904.084 8.381-26.204z"/><path fill="#0075C9" d="m76.126 75.364-35.84 54.127c-2.975 3.178-1.49 9.736 3.3 14.568l20.688 20.858 13.005 4.584c-.562-2.16-.916-4.219-.97-6.103l-.14-3.926-.043-84.102z"/><path fill="#0075C9" d="M169.906 76.447c-2.165-.549-4.241-.895-6.111-.948l-4.157-.152-83.827.02 116.415 116.398 10.226-23.063-32.54-92.25z"/><path fill="#00A8E1" d="M169.799 76.427a1 1 0 0 0 .107.028v-.011c-.036-.008-.07-.008-.107-.023zm18.605 9.894c-4.233-4.26-11.728-8.156-18.498-9.866l32.541 92.242-10.238 23.062 24.981-7.982.056-68.49-28.845-28.968z"/><path fill="#00C4B3" d="m165.344 63.523-20.812-20.7c-4.855-4.772-11.413-6.263-14.563-3.293L75.845 75.361l83.827-.02 4.156.152c1.871.057 3.949.4 6.112.948l-4.59-12.923z"/></svg>
